X:64
%%score 1 2
T:John, come kiss me now.
M:2/4
L:1/8
K:F
V:1 clef-treble
V:2 clef-bass octave=-1
V:1
F>GAG/F/|BDBA/G/|F>G A/G/A/B/|c>Cc2|F>G AG/F/|
w:John, come kiss me* now, now, now,||||
V:2
[FA]2[FC]2|[GB][GB][GB]2|[DA]2[DF]2|[CEG][CEG][CEG]2|[A,F]2[F,F]2|
V:1
B/A/B/c/ dc/B/&x2F2|A/B/c/A/ G>F&F2FE|F,4&F,4||[Fc]2[FAf]e|[FBd]3[GBe]|[Af]A/B/ [Fc][FBd]|
V:2
[DF]2[B,F]2|FAc2&C3C|[FA]2F,2||A2F2|B3G|d2AB/A/|
V:1
[GBe][Af][Gcf]e|[Fcf]c/B/ AA&x2F2|Bc d/c/B/A/&D2GD|GA G>F&EF FE|F4&F4||
V:2
GFC2|A2d2|G2BG|c4&c2C2|[FA]2F,2||

